ghost/admin/public/assets/img/zapier-logo.svg

<svg width="80" height="37" viewBox="0 0 80 37" xmlns="http://www.w3.org/2000/svg" class="css-1oudp6l-ZapierLogo--red500"><path fill="#ff4a00" fill-rule="evenodd" clip-rule="evenodd" d="M53.9335 4.18463H50.9949L53.0729 2.11208C52.9095 1.88325 52.7272 1.66852 52.5286 1.47051C52.3301 1.2725 52.1154 1.09121 51.8859 0.928209L49.808 3.00076V0.069825C49.5361 0.024372 49.2564 0.000339343 48.972 -0.000183105H48.9662C48.6813 0.000339343 48.4021 0.024372 48.1302 0.069825V3.00076L46.0523 0.928209C45.8228 1.09121 45.6076 1.2725 45.4095 1.47051L45.4085 1.47156C45.21 1.66904 45.0282 1.88325 44.8653 2.11208L46.9433 4.18463H44.0047C44.0047 4.18463 43.9345 4.73477 43.9345 5.01951V5.02316C43.9345 5.30737 43.9586 5.58688 44.0047 5.85856H46.9433L44.8653 7.93059C45.1922 8.38826 45.5934 8.78897 46.0523 9.11446L48.1302 7.0419V9.97284C48.4021 10.0183 48.6807 10.0423 48.9652 10.0429H48.9725C49.2569 10.0423 49.5366 10.0183 49.808 9.97284V7.0419L51.8865 9.11446C52.1154 8.95198 52.3301 8.77017 52.5286 8.57216H52.5292C52.7272 8.37415 52.9095 8.15942 53.0729 7.93059L50.9944 5.85856H53.9335C53.9791 5.58741 54.0032 5.30894 54.0032 5.02473V5.01794C54.0032 4.73373 53.9791 4.45578 53.9335 4.18463ZM58.8497 25.5304C58.0105 24.7441 57.571 23.5038 57.5302 21.8095H68.1148C68.1347 21.588 68.1551 21.3215 68.175 21.0081C68.1955 20.6956 68.206 20.3984 68.206 20.1157C68.206 19.087 68.064 18.1346 67.7811 17.2574C67.4978 16.3802 67.0834 15.6242 66.5381 14.9889C65.9918 14.3536 65.3145 13.8547 64.5058 13.4916C63.697 13.1285 62.7568 12.9467 61.6856 12.9467C60.4316 12.9467 59.3447 13.1635 58.4249 13.5971C57.5051 14.0313 56.7419 14.6159 56.1353 15.3515C55.5292 16.0882 55.0788 16.9549 54.786 17.9528C54.4926 18.9517 54.346 20.0253 54.346 21.1742C54.346 22.3445 54.4979 23.4181 54.8011 24.3961C55.1044 25.3742 55.5848 26.2216 56.2416 26.9373C56.8985 27.6531 57.7329 28.2074 58.7439 28.6008C59.7543 28.9942 60.9674 29.1907 62.3833 29.1907C63.3534 29.1907 64.2376 29.1196 65.0369 28.9791C65.8347 28.8375 66.568 28.6264 67.2353 28.3438C67.2149 27.9201 67.1547 27.4922 67.0536 27.058C66.952 26.6244 66.821 26.2566 66.6591 25.9541C65.3648 26.4582 64.0008 26.7106 62.565 26.7106C60.9271 26.7106 59.6888 26.3167 58.8497 25.5304ZM30.5092 13.3096C30.7109 13.2699 30.9183 13.2396 31.1305 13.2192C31.3431 13.1993 31.56 13.1889 31.7826 13.1889C31.9843 13.1889 32.1969 13.1993 32.4195 13.2192C32.6416 13.2396 32.8543 13.2699 33.0565 13.3096C33.0764 13.3508 33.1021 13.4762 33.1319 13.6883C33.1623 13.8999 33.1927 14.1267 33.2231 14.3686C33.2535 14.6105 33.2838 14.843 33.3142 15.0645C33.3446 15.2865 33.3593 15.4276 33.3593 15.4882C33.5615 15.1653 33.804 14.8529 34.0874 14.5504C34.3702 14.2479 34.7096 13.9752 35.1035 13.7338C35.4975 13.4914 35.9422 13.3002 36.4382 13.1591C36.9327 13.018 37.4837 12.947 38.0908 12.947C39.0002 12.947 39.8445 13.0985 40.6235 13.401C41.4013 13.7035 42.0681 14.1721 42.6244 14.8069C43.1802 15.4427 43.6149 16.2494 43.9287 17.2269C44.2419 18.206 44.3985 19.3595 44.3985 20.6907C44.3985 23.3526 43.6757 25.4351 42.2305 26.9371C40.7843 28.4397 38.7377 29.191 36.0888 29.191C35.6441 29.191 35.1895 29.1607 34.7243 29.1001C34.2586 29.0395 33.8548 28.9585 33.5112 28.8582V35.9666C33.2686 36.0063 33.0109 36.0366 32.738 36.057C32.4651 36.0768 32.2168 36.0873 31.9947 36.0873C31.7721 36.0873 31.5249 36.0768 31.252 36.057C30.9791 36.0366 30.7313 36.0063 30.5092 35.9666V13.3096ZM24.2918 18.6036C24.2918 17.4135 23.9885 16.5869 23.382 16.123C22.7754 15.6596 21.8959 15.4276 20.7435 15.4276C20.0353 15.4276 19.3738 15.4835 18.7572 15.5938C18.1402 15.705 17.5383 15.8508 16.9527 16.0321C16.5682 15.3665 16.3765 14.5708 16.3765 13.6424C17.0632 13.4209 17.8212 13.2495 18.6509 13.1283C19.4796 13.0071 20.2779 12.947 21.0468 12.947C23.0682 12.947 24.605 13.4063 25.6563 14.3232C26.7076 15.2411 27.2335 16.7082 27.2335 18.7243V28.4345C26.5259 28.596 25.6668 28.7621 24.6559 28.9335C23.6444 29.1043 22.613 29.1905 21.5622 29.1905C20.5712 29.1905 19.677 29.1001 18.8782 28.9183C18.0794 28.7365 17.4021 28.445 16.8464 28.0406C16.2901 27.6383 15.8606 27.1232 15.5573 26.4983C15.254 25.8735 15.1026 25.1175 15.1026 24.2293C15.1026 23.3631 15.2791 22.6014 15.6332 21.9457C15.9868 21.2911 16.4671 20.7462 17.0737 20.3125C17.6803 19.8794 18.378 19.556 19.1663 19.3449C19.9552 19.1328 20.7839 19.0268 21.6534 19.0268C22.3003 19.0268 22.8309 19.0425 23.2452 19.0722C23.6596 19.1031 24.0084 19.1381 24.2918 19.1783V18.6036ZM0.666687 28.4045L8.8554 15.6996H1.63731C1.57654 15.3365 1.54616 14.9337 1.54616 14.4896C1.54616 14.0664 1.57654 13.6725 1.63731 13.3094H13.3135L13.4649 13.7033L5.21597 26.438H12.9495C13.0097 26.8419 13.0406 27.2546 13.0406 27.6778C13.0406 28.0822 13.0097 28.4646 12.9495 28.8282H0.818592L0.666687 28.4045ZM23.1394 21.417C23.6046 21.4577 23.9885 21.4974 24.2918 21.5377V26.4685C23.9073 26.5694 23.4679 26.6446 22.9723 26.6948C22.4773 26.746 21.997 26.771 21.5319 26.771C21.1683 26.771 20.7839 26.7512 20.3795 26.7104C19.9751 26.6697 19.6063 26.5589 19.2727 26.3776C18.939 26.1958 18.6609 25.9341 18.4388 25.5908C18.2156 25.2486 18.1051 24.7742 18.1051 24.1692C18.1051 23.222 18.433 22.5162 19.0909 22.0518C19.7472 21.5883 20.7027 21.3559 21.9567 21.3559C22.2799 21.3559 22.6743 21.3768 23.1394 21.417ZM34.6939 26.5892C34.2895 26.5291 33.8946 26.4283 33.5112 26.2867V19.9953C33.5112 19.2284 33.6222 18.5691 33.8454 18.0137C34.0675 17.4594 34.3603 17.0001 34.7243 16.637C35.0884 16.2739 35.5022 16.0017 35.9678 15.821C36.4324 15.6392 36.918 15.5483 37.4235 15.5483C38.7775 15.5483 39.7534 16.0226 40.35 16.9698C40.9461 17.9181 41.2447 19.1986 41.2447 20.8119C41.2447 21.8203 41.1179 22.6922 40.8654 23.4278C40.6124 24.1645 40.2688 24.7742 39.8341 25.258C39.3998 25.7423 38.8792 26.1012 38.2726 26.3321C37.666 26.5641 36.9992 26.6801 36.2711 26.6801C35.6237 26.6801 35.0983 26.6493 34.6939 26.5892ZM48.129 15.6693H46.1574C46.1171 15.5079 46.0867 15.3214 46.0668 15.1098C46.0463 14.8982 46.0364 14.6913 46.0364 14.4896C46.0364 14.2885 46.0463 14.0811 46.0668 13.8695C46.0867 13.6579 46.1171 13.4714 46.1574 13.3094H51.0713V28.8282C50.8481 28.8679 50.6009 28.8977 50.328 28.9181C50.0551 28.9379 49.8068 28.9484 49.5847 28.9484C49.3825 28.9484 49.1447 28.9379 48.8723 28.9181C48.5989 28.8977 48.3511 28.8679 48.129 28.8282V15.6693ZM65.2339 19.5718C65.2339 19.0071 65.1579 18.4679 65.0065 17.9528C64.8546 17.4387 64.632 16.9904 64.3392 16.607C64.0453 16.224 63.6719 15.9163 63.2167 15.6848C62.762 15.4529 62.2209 15.3364 61.5944 15.3364C60.3609 15.3364 59.4159 15.7099 58.7585 16.456C58.1017 17.202 57.7025 18.2407 57.5606 19.5718H65.2339ZM72.1499 13.2192C71.9477 13.2396 71.7351 13.2699 71.513 13.3096V28.8279C71.7555 28.8676 72.0132 28.8979 72.2866 28.9183C72.5595 28.9382 72.8068 28.9486 73.0299 28.9486C73.2515 28.9486 73.4998 28.9382 73.7722 28.9183C74.0451 28.8979 74.2928 28.8676 74.5154 28.8279V21.114C74.5154 20.0659 74.6317 19.2086 74.8643 18.5435C75.0964 17.8779 75.4101 17.3534 75.804 16.9699C76.1984 16.5869 76.6426 16.32 77.1387 16.1685C77.6342 16.0175 78.1549 15.9417 78.7007 15.9417H79.1098C79.2816 15.9417 79.4482 15.9621 79.6105 16.0018C79.6509 15.7604 79.6865 15.5081 79.7169 15.2458C79.7467 14.9841 79.7619 14.7317 79.7619 14.4898C79.7619 14.2678 79.752 14.0562 79.7315 13.8545C79.7116 13.6534 79.6807 13.4611 79.6409 13.2793C79.5199 13.26 79.3722 13.2448 79.2009 13.2344C79.0291 13.2239 78.862 13.2192 78.7007 13.2192C77.6085 13.2192 76.7144 13.4716 76.0167 13.9752C75.3195 14.4794 74.758 15.075 74.3337 15.7604C74.3337 15.4172 74.3028 14.9992 74.2425 14.5045C74.1818 14.0113 74.121 13.6121 74.0608 13.3096C73.8785 13.2699 73.6763 13.2396 73.4542 13.2192C73.2311 13.1994 73.009 13.1889 72.7869 13.1889C72.5643 13.1889 72.3516 13.1994 72.1499 13.2192ZM50.0343 6.08373C50.1589 5.75355 50.2276 5.39671 50.2276 5.02368V5.01898C50.2276 4.64595 50.1589 4.2886 50.0343 3.95893C49.7037 3.83459 49.3455 3.76615 48.9715 3.76615H48.9667C48.5927 3.76615 48.2345 3.83459 47.9034 3.95893C47.7793 4.2886 47.7106 4.64595 47.7101 5.01898V5.02368C47.7106 5.39671 47.7793 5.75407 47.9039 6.08373C48.2345 6.20808 48.5927 6.27652 48.9667 6.27652H48.9715C49.3455 6.27652 49.7037 6.20808 50.0343 6.08373Z"></path></svg>

<svg width="80" height="37" viewBox="0 0 80 37" xmlns="http://www.w3.org/2000/svg" class="css-1oudp6l-ZapierLogo--red500">
    <title>zapier-logo</title>
    <path fill="#ff4a00" fill-rule="evenodd" clip-rule="evenodd" d="M53.934 4.185h-2.94l2.079-2.073A5.053 5.053 0 0 0 51.886.928l-2.078 2.073V.07a5.129 5.129 0 0 0-.836-.07h-.006c-.285 0-.564.024-.836.07V3L46.052.929c-.23.163-.444.344-.642.543h-.002c-.198.198-.38.412-.543.641l2.078 2.073h-2.938s-.07.55-.07.835v.003c0 .284.024.564.07.836h2.938l-2.078 2.07a5.05 5.05 0 0 0 1.187 1.183l2.078-2.072v2.93c.272.046.55.07.835.07h.007c.285 0 .565-.024.836-.07v-2.93l2.078 2.072a5.098 5.098 0 0 0 1.186-1.184L50.995 5.86h2.94c.045-.272.07-.55.07-.834v-.007a5.08 5.08 0 0 0-.07-.833ZM58.85 25.53c-.84-.786-1.279-2.026-1.32-3.72h10.585c.02-.222.04-.488.06-.802.02-.312.031-.61.031-.892a9.263 9.263 0 0 0-.425-2.859c-.283-.877-.698-1.633-1.243-2.268a5.736 5.736 0 0 0-2.032-1.497c-.809-.364-1.75-.545-2.82-.545-1.254 0-2.341.217-3.261.65a6.532 6.532 0 0 0-2.29 1.755c-.606.736-1.056 1.603-1.349 2.6-.293 1-.44 2.073-.44 3.222 0 1.17.152 2.244.455 3.222a6.59 6.59 0 0 0 1.44 2.541c.657.716 1.492 1.27 2.503 1.664 1.01.393 2.223.59 3.64.59.97 0 1.854-.071 2.653-.212a10.191 10.191 0 0 0 2.198-.635 7.18 7.18 0 0 0-.181-1.286 4.54 4.54 0 0 0-.395-1.104 11.178 11.178 0 0 1-4.094.757c-1.638 0-2.876-.394-3.715-1.18ZM30.51 13.31a6.378 6.378 0 0 1 1.273-.121 7.115 7.115 0 0 1 1.274.12c.02.042.045.167.075.38.03.21.06.438.091.68.03.242.06.474.091.696.03.222.045.363.045.423.203-.323.445-.635.728-.938a4.85 4.85 0 0 1 1.016-.816 5.298 5.298 0 0 1 1.335-.575 6.016 6.016 0 0 1 1.653-.212c.91 0 1.753.152 2.532.454a5.068 5.068 0 0 1 2.001 1.406c.556.636.99 1.442 1.305 2.42.313.979.47 2.133.47 3.464 0 2.662-.723 4.744-2.169 6.246-1.446 1.503-3.492 2.254-6.141 2.254-.445 0-.9-.03-1.365-.09a8.095 8.095 0 0 1-1.213-.243v7.109a10.389 10.389 0 0 1-1.517.12c-.222 0-.47-.01-.742-.03-.273-.02-.52-.05-.743-.09V13.31Zm-6.218 5.294c0-1.19-.304-2.017-.91-2.481-.607-.463-1.486-.695-2.639-.695-.708 0-1.37.055-1.986.166-.617.111-1.219.257-1.804.438-.385-.665-.576-1.461-.576-2.39a14.015 14.015 0 0 1 2.274-.514 16.555 16.555 0 0 1 2.396-.181c2.021 0 3.558.46 4.61 1.376 1.05.918 1.576 2.385 1.576 4.401v9.71a47.6 47.6 0 0 1-2.577.5 18.55 18.55 0 0 1-3.094.256c-.99 0-1.885-.09-2.684-.272-.799-.181-1.476-.473-2.032-.877a4.061 4.061 0 0 1-1.289-1.543c-.303-.625-.454-1.38-.454-2.269 0-.866.176-1.628.53-2.283a4.77 4.77 0 0 1 1.44-1.634 6.427 6.427 0 0 1 2.093-.967 9.538 9.538 0 0 1 2.487-.318c.647 0 1.178.015 1.592.045.415.031.763.066 1.047.106v-.574Zm-23.625 9.8L8.855 15.7H1.637a7.356 7.356 0 0 1-.09-1.21c0-.424.03-.818.09-1.18h11.677l.15.393-8.248 12.735h7.734c.06.404.09.817.09 1.24 0 .404-.03.787-.09 1.15H.819l-.152-.424Zm22.472-6.987c.466.04.85.08 1.153.12v4.931a8.642 8.642 0 0 1-1.32.227 14.05 14.05 0 0 1-1.44.076c-.364 0-.748-.02-1.152-.06a2.9 2.9 0 0 1-1.107-.333 2.293 2.293 0 0 1-.834-.787c-.223-.342-.334-.817-.334-1.422 0-.947.328-1.653.986-2.117.656-.464 1.612-.696 2.866-.696.323 0 .717.02 1.182.061Zm11.555 5.172a5.87 5.87 0 0 1-1.183-.302v-6.292c0-.767.111-1.426.334-1.981.223-.555.515-1.014.88-1.377a3.58 3.58 0 0 1 1.243-.816c.464-.182.95-.273 1.455-.273 1.355 0 2.33.475 2.927 1.422.596.948.895 2.229.895 3.842 0 1.008-.127 1.88-.38 2.616-.253.736-.596 1.346-1.03 1.83a3.965 3.965 0 0 1-1.562 1.074 5.558 5.558 0 0 1-2.002.348c-.647 0-1.173-.03-1.577-.09Zm13.435-10.92h-1.972a3.793 3.793 0 0 1-.09-.56 6.432 6.432 0 0 1 0-1.24c.02-.211.05-.398.09-.56h4.914v15.52c-.223.039-.47.069-.743.09-.273.019-.521.03-.743.03-.203 0-.44-.011-.713-.03a7.367 7.367 0 0 1-.743-.09v-13.16Zm17.105 3.903a5.71 5.71 0 0 0-.227-1.62 4.113 4.113 0 0 0-.668-1.345 3.246 3.246 0 0 0-1.122-.922c-.455-.232-.996-.349-1.623-.349-1.233 0-2.178.374-2.836 1.12-.656.746-1.056 1.785-1.197 3.116h7.673Zm6.916-6.353a8.11 8.11 0 0 0-.637.09v15.519a10.308 10.308 0 0 0 1.517.12c.221 0 .47-.01.742-.03.273-.02.52-.05.743-.09v-7.714c0-1.048.117-1.905.35-2.57.231-.666.545-1.19.939-1.574a3.26 3.26 0 0 1 1.335-.801 5.33 5.33 0 0 1 1.562-.227h.409c.172 0 .338.02.5.06.04-.242.076-.494.107-.756a6.694 6.694 0 0 0 .014-1.392 4.99 4.99 0 0 0-.09-.575 4.641 4.641 0 0 0-.44-.045 8.203 8.203 0 0 0-.5-.015c-1.092 0-1.987.253-2.684.756a6.273 6.273 0 0 0-1.683 1.785c0-.343-.031-.76-.091-1.255a17.208 17.208 0 0 0-.182-1.195 5.019 5.019 0 0 0-.607-.09 7.54 7.54 0 0 0-.667-.031c-.223 0-.435.01-.637.03ZM50.034 6.084c.125-.33.194-.687.194-1.06v-.005c0-.373-.07-.73-.194-1.06a3.013 3.013 0 0 0-1.063-.193h-.004a3.03 3.03 0 0 0-1.064.193 3.03 3.03 0 0 0-.193 1.06v.005c0 .373.07.73.194 1.06.33.124.689.193 1.063.193h.005c.373 0 .732-.069 1.062-.193Z"/>
</svg>
